blockchains/ethereum/assets/0x058Ef0Ba85E053e55d357C8A95BC6Ea7458Def8a/logo.svg

<svg fill="none" height="250" viewBox="0 0 250 250" width="250" xmlns="http://www.w3.org/2000/svg" xmlns:xlink="http://www.w3.org/1999/xlink"><clipPath id="a"><path d="m0 0h250v250h-250z"/></clipPath><g clip-path="url(#a)"><g fill="#f49e3a"><path d="m76.6799 9.56565c15.045-5.92422 31.1851-9.942667 47.4351-9.5375817 4.375 1.3212017 8.702 2.8318617 13.037 4.2939017 19.824 6.92513 37.598 19.21603 51.712 34.65783-2.7 2.9329-5.48 5.7747-8.28 8.6078-15.96-11.3424-35.482-17.7752-55.114-17.5845-3.614-.0498-7.226.3104-10.85.2094-11.423-.9709-23.1863-1.7611-34.3376 1.5119-.24 3.1024-.5 6.2047-.75 9.317-16.2925 8.7474-30.0325 22.1987-38.835 38.442-10.5087.0698-21.0287.0598-31.53749.0299.03125-.4001.09125-1.2202.125-1.6316l.375-.3502c4.86749-4.2378 8.12499-9.9177 12.61629-14.512 10.1475-10.6482 22.5-19.1948 35.9425-25.1702 5.4525-2.5788 11.7812-3.0624 16.935-6.3181 1.235-7.2528-.26-14.7388 1.5262-21.96555z"/><path d="m171.57 62.0721c7.875-3.6333 15.306-8.4171 23.868-10.369.191 7.7764-.01 15.5628.375 23.3392-16.663 16.6928-33.33 33.3797-50 50.0607 15.687 15.873 31.566 31.557 47.295 47.38-.75 8.217-.363 16.463-.653 24.691-7.809-2.273-14.815-6.446-21.931-10.27-.773 1.112-1.546 2.233-2.319 3.343-14.637-14.51-29.247-29.052-43.83-43.624-8.191 7.806-16 15.983-24.1 23.88-7.2162-7.006-14.4025-14.062-21.3275-21.359 7.9588-8.015 16.1088-15.853 23.8975-24.029-7.9383-7.926-15.8775-15.849-23.8175-23.77 6.825-7.4457 14.2325-14.3521 21.3385-21.5476 8.019 7.977 15.969 16.0339 23.989 24.0096 15.055-14.9719 30.094-29.9609 45.116-44.9669.704 1.0707 1.397 2.1513 2.099 3.232z"/><path d="m.658691 109.737c10.840009-.101 21.680009-.04 32.520009-.03-1.8363 10.008-3.0613 20.207-2.1575 30.385.4812 9.548 3.6837 18.685 7.875 27.202-2.0375 1.932-4.1117 3.83-6.2225 5.695-16.9588-16.624-27.98001-38.942-31.823759-62.271z"/><path d="m131.794 220.168c17.363-1.571 34.326-7.547 48.518-17.715 1.826 1.842 3.65 3.687 5.47 5.535-15.778 16.194-35.772 28.934-57.983 34.028-1.225-6.856-2.47-13.701-3.413-20.597 2.469-.42 4.928-.86 7.408-1.251z"/></g><g fill="#f27748"><path d="m124.116.0313891c27.521-.6543691 55.022 8.9567509 76.794 25.6213109 21.66 16.4939 37.678 40.1932 44.725 66.4453 7.447 27.152 5.308 56.787-5.963 82.588-11.954 27.702-34.366 50.701-61.757 63.472-23.488 10.99-50.487 14.662-75.982 9.619-31.3646-5.746-60.0508-24.221-78.5083-50.113-17.93627-24.881-26.23752-56.506-22.573773-86.941 3.843753 23.329 14.864973 45.648 31.827473 62.271 2.1075-1.871 4.1817-3.769 6.2225-5.695 10.2888 20.468 28 37.171 49.3125 45.779 13.7296 5.714 28.7666 7.836 43.5816 7.095-2.48.391-4.939.831-7.408 1.247.943 6.896 2.188 13.742 3.413 20.597 22.211-5.094 42.205-17.834 57.983-34.027-1.825-1.842-3.649-3.688-5.47-5.536-4.025-4.083-8.125-8.086-12.115-12.214.773-1.111 1.547-2.232 2.319-3.343 7.116 3.824 14.125 7.997 21.931 10.269.29-8.226-.091-16.474.653-24.69 2.94 2.901 5.884 5.8 8.832 8.696 11.984-16.142 18.589-36.18 18.518-56.266.071-19.986-6.474-39.9126-18.338-56.0263-2.107 2.0516-4.208 4.1032-6.302 6.1548-.383-7.7764-.181-15.5627-.375-23.3391-8.561 1.9518-15.989 6.7306-23.868 10.3689-.702-1.0819-1.395-2.1625-2.097-3.2332 3.724-3.7231 7.407-7.486 11.111-11.2489 2.8-2.8331 5.58-5.675 8.28-8.6078-14.111-15.4331-31.885-27.724-51.709-34.64911-4.335-1.4583-8.661-2.9727-13.037-4.2939009z"/><path d="m9.65259 77.5362c11.77371-30.5148 37.00001-55.1851 67.02751-67.96589-1.7863 7.22919-.2913 14.70769-1.5263 21.96809-5.1487 3.2531-11.4825 3.7393-16.9425 6.3156-13.4487 5.9753-25.795 14.522-35.9425 25.1701-4.4962 4.5943-7.7487 10.2668-12.61621 14.5121z"/><path d="m80.2825 31.7265c11.1513-3.2731 22.9155-2.4829 34.3375-1.5119-12.185 1.7213-24.17 5.0741-35.09 10.8288.2513-3.1123.5125-6.2146.7525-9.3169z"/><path d="m33.1787 109.71c9.285-.01 18.5587-.06 27.8437.03.02 10.119.02 20.234 0 30.345-10 .08-20 .06-30 .01-.905-10.178.32-20.377 2.1563-30.385z"/></g></g></svg>

<svg width="250" height="250" viewBox="0 0 250 250" fill="none" xmlns="http://www.w3.org/2000/svg">
<g clip-path="url(#clip0_44_10709)">
<path d="M76.6799 9.56565C91.7249 3.64143 107.865 -0.377017 124.115 0.0280683C128.49 1.34927 132.817 2.85993 137.152 4.32197C156.976 11.2471 174.75 23.538 188.864 38.9798C186.164 41.9127 183.384 44.7545 180.584 47.5876C164.624 36.2452 145.102 29.8124 125.47 30.0031C121.856 29.9533 118.244 30.3135 114.62 30.2125C103.197 29.2416 91.4337 28.4514 80.2824 31.7244C80.0424 34.8268 79.7824 37.9291 79.5324 41.0414C63.2399 49.7888 49.4999 63.2401 40.6974 79.4834C30.1887 79.5532 19.6687 79.5432 9.15991 79.5133C9.19116 79.1132 9.25116 78.2931 9.28491 77.8817L9.65991 77.5315C14.5274 73.2937 17.7849 67.6138 22.2762 63.0195C32.4237 52.3713 44.7762 43.8247 58.2187 37.8493C63.6712 35.2705 69.9999 34.7869 75.1537 31.5312C76.3887 24.2784 74.8937 16.7924 76.6799 9.56565Z" fill="#F49E3A"/>
<path d="M171.57 62.0721C179.445 58.4388 186.876 53.655 195.438 51.7031C195.629 59.4795 195.428 67.2659 195.813 75.0423C179.15 91.7351 162.483 108.422 145.813 125.103C161.5 140.976 177.379 156.66 193.108 172.483C192.358 180.7 192.745 188.946 192.455 197.174C184.646 194.901 177.64 190.728 170.524 186.904C169.751 188.016 168.978 189.137 168.205 190.247C153.568 175.737 138.958 161.195 124.375 146.623C116.184 154.429 108.375 162.606 100.275 170.503C93.0588 163.497 85.8725 156.441 78.9475 149.144C86.9063 141.129 95.0563 133.291 102.845 125.115C94.9067 117.189 86.9675 109.266 79.0275 101.345C85.8525 93.8993 93.26 86.9929 100.366 79.7974C108.385 87.7744 116.335 95.8313 124.355 103.807C139.41 88.8351 154.449 73.8461 169.471 58.8401C170.175 59.9108 170.868 60.9914 171.57 62.0721Z" fill="#F49E3A"/>
<path d="M0.658691 109.737C11.4987 109.636 22.3387 109.697 33.1787 109.707C31.3424 119.715 30.1174 129.914 31.0212 140.092C31.5024 149.64 34.7049 158.777 38.8962 167.294C36.8587 169.226 34.7845 171.124 32.6737 172.989C15.7149 156.365 4.69369 134.047 0.849941 110.718L0.658691 109.737Z" fill="#F49E3A"/>
<path d="M131.794 220.168C149.157 218.597 166.12 212.621 180.312 202.453C182.138 204.295 183.962 206.14 185.782 207.988C170.004 224.182 150.01 236.922 127.799 242.016C126.574 235.16 125.329 228.315 124.386 221.419C126.855 220.999 129.314 220.559 131.794 220.168Z" fill="#F49E3A"/>
<path d="M124.116 0.0313891C151.637 -0.62298 179.138 8.98814 200.91 25.6527C222.57 42.1466 238.588 65.8459 245.635 92.098C253.082 119.25 250.943 148.885 239.672 174.686C227.718 202.388 205.306 225.387 177.915 238.158C154.427 249.148 127.428 252.82 101.933 247.777C70.5684 242.031 41.8822 223.556 23.4247 197.664C5.48843 172.783 -2.81282 141.158 0.850927 110.723C4.69468 134.052 15.7159 156.371 32.6784 172.994C34.7859 171.123 36.8601 169.225 38.9009 167.299C49.1897 187.767 66.9009 204.47 88.2134 213.078C101.943 218.792 116.98 220.914 131.795 220.173C129.315 220.564 126.856 221.004 124.387 221.42C125.33 228.316 126.575 235.162 127.8 242.017C150.011 236.923 170.005 224.183 185.783 207.99C183.958 206.148 182.134 204.302 180.313 202.454C176.288 198.371 172.188 194.368 168.198 190.24C168.971 189.129 169.745 188.008 170.517 186.897C177.633 190.721 184.642 194.894 192.448 197.166C192.738 188.94 192.357 180.692 193.101 172.476C196.041 175.377 198.985 178.276 201.933 181.172C213.917 165.03 220.522 144.992 220.451 124.906C220.522 104.92 213.977 84.9934 202.113 68.8797C200.006 70.9313 197.905 72.9829 195.811 75.0345C195.428 67.2581 195.63 59.4718 195.436 51.6954C186.875 53.6472 179.447 58.426 171.568 62.0643C170.866 60.9824 170.173 59.9018 169.471 58.8311C173.195 55.108 176.878 51.3451 180.582 47.5822C183.382 44.7491 186.162 41.9072 188.862 38.9744C174.751 23.5413 156.977 11.2504 137.153 4.32529C132.818 2.86699 128.492 1.35259 124.116 0.0313891Z" fill="#F27748"/>
<path d="M9.65259 77.5362C21.4263 47.0214 46.6526 22.3511 76.6801 9.57031C74.8938 16.7995 76.3888 24.278 75.1538 31.5384C70.0051 34.7915 63.6713 35.2777 58.2113 37.854C44.7626 43.8293 32.4163 52.376 22.2688 63.0241C17.7726 67.6184 14.5201 73.2909 9.65259 77.5362Z" fill="#F27748"/>
<path d="M80.2825 31.7265C91.4338 28.4534 103.198 29.2436 114.62 30.2146C102.435 31.9359 90.45 35.2887 79.53 41.0434C79.7813 37.9311 80.0425 34.8288 80.2825 31.7265Z" fill="#F27748"/>
<path d="M33.1787 109.71C42.4637 109.7 51.7374 109.65 61.0224 109.74C61.0424 119.859 61.0424 129.974 61.0224 140.085C51.0224 140.165 41.0224 140.145 31.0224 140.095C30.1174 129.917 31.3424 119.718 33.1787 109.71Z" fill="#F27748"/>
</g>
<defs>
<clipPath id="clip0_44_10709">
<rect width="250" height="250" fill="white"/>
</clipPath>
</defs>
</svg>
